Resources/Icons/rank5_toilet.svg

<svg width="1024" height="1024" xmlns="http://www.w3.org/2000/svg">

	<g>
		<title>Layer 1</title>
		<path id="svg_3" d="m254.413,102.191l1.387,-0.044c59.416,-1.509 110.093,49.778 111.395,108.478c1.338,60.286 -48.934,111.826 -108.983,113.104c-29.728,0.408 -58.127,-10.793 -79.555,-31.451c-71.733,-69.157 -21.026,-188.746 75.756,-190.087z" transform="scale(2 2)"/>
		<path id="svg_4" d="m252.922,115.224c21.734,-1.847 48.052,7.869 64.696,21.707c42.312,35.181 49.071,95.894 13.606,138.448c-19.099,22.917 -42.68,32.753 -71.417,35.365c-54.458,1.023 -100.365,-39.793 -101.511,-94.985c-1.101,-53.079 40.877,-99.504 94.626,-100.535z" transform="scale(2 2)" fill="#07AF00"/>
		<path id="svg_5" d="m251.415,141.35c22.248,-3.767 42.876,15.304 43.436,37.879c0.265,10.672 -2.209,15.592 -6.41,24.969c18.638,0.061 15.358,1.398 15.304,20.579l0.022,25.606c0.025,30.22 -17.085,32.346 -42.392,32.284l-16.878,0.012c-34.941,-0.015 -36.522,-12.4 -36.463,-43.744l-0.057,-27.087c0.01,-10.498 6.247,-7.72 15.456,-7.65c-2.531,-5.865 -5.32,-11.773 -6.02,-18.196c-2.364,-21.699 11.599,-42.281 34.002,-44.652z" transform="scale(2 2)"/>
		<path id="svg_6" d="m252.922,154.075c12.224,-1.005 22.673,4.821 27.389,16.399c5.121,12.57 -1.275,23.193 -6.129,34.556l-13.447,0l-22.778,0c-2.683,-5.376 -6.836,-14.81 -7.683,-20.316c-2.285,-14.859 7.847,-28.413 22.648,-30.639z" transform="scale(2 2)" fill="white"/>
		<path id="svg_7" d="m220.927,217.486l69.796,0l0.021,24.873c0.006,8.472 1.483,15.939 -4.302,22.829c-3.552,3.394 -6.901,4.476 -11.793,4.537c-8.335,0.105 -36.36,1.203 -43.52,-0.4c-12.085,-2.705 -10.228,-15.969 -10.223,-25.245l0.021,-26.594z" transform="scale(2 2)" fill="white"/>
	</g>
</svg>

<?xml version="1.0" encoding="utf-8" ?>
<svg xmlns="http://www.w3.org/2000/svg" xmlns:xlink="http://www.w3.org/1999/xlink" width="1024" height="1024">
	<path transform="scale(2 2)" d="M248.328 53.7489C286.141 52.3309 321.817 63.3865 352.102 86.1746C426.788 142.373 436.901 251.336 374.953 321.146C364.369 333.073 350.946 344.293 339.542 356.4C321.239 375.83 303.318 395.746 287.195 417.044C277.97 429.229 269.759 442.089 260.735 454.083C253.316 462.443 247.125 447.657 243.848 442.881C220.677 409.113 193.885 377.096 164.935 348.154C157.058 340.278 148.194 333.453 140.56 325.334C52.3951 231.572 103.513 77.3889 231.282 55.56C236.914 54.5977 242.645 54.2933 248.328 53.7489Z"/>
	<path transform="scale(2 2)" d="M249.613 66.7256C255.062 66.6793 260.631 66.5243 266.069 66.8605C318.751 70.1172 366.389 103.802 388.761 151.415C411.993 200.857 405.068 260.225 372.419 303.763C361.73 318.017 347.62 329.012 335.23 341.683C325.202 351.939 263.694 420.711 259.807 433.118C258.42 434.618 257.101 436.097 255.918 437.765C247.42 423.913 236.866 410.786 226.669 398.185C207 373.878 186.469 350.505 163.692 329.062C159.034 324.677 154.117 320.607 149.712 315.953C71.8597 233.707 113.311 94.442 225.498 69.9745C233.447 68.2408 241.527 67.4851 249.613 66.7256Z"/>
	<path transform="scale(2 2)" d="M254.413 102.191L255.8 102.147C315.216 100.638 365.893 151.925 367.195 210.625C368.533 270.911 318.261 322.451 258.212 323.729C228.484 324.137 200.085 312.936 178.657 292.278C106.924 223.121 157.631 103.532 254.413 102.191Z"/>
	<path fill="#07AF00" transform="scale(2 2)" d="M252.922 115.224C274.656 113.377 300.974 123.093 317.618 136.931C359.93 172.112 366.689 232.825 331.224 275.379C312.125 298.296 288.544 308.132 259.807 310.744C205.349 311.767 159.442 270.951 158.296 215.759C157.195 162.68 199.173 116.255 252.922 115.224Z"/>
	<path transform="scale(2 2)" d="M251.415 141.35C273.663 137.583 294.291 156.654 294.851 179.229C295.116 189.901 292.642 194.821 288.441 204.198C307.079 204.259 303.799 205.596 303.745 224.777L303.767 250.383C303.792 280.603 286.682 282.729 261.375 282.667L244.497 282.679C209.556 282.664 207.975 270.279 208.034 238.935L207.977 211.848C207.987 201.35 214.224 204.128 223.433 204.198C220.902 198.333 218.113 192.425 217.413 186.002C215.049 164.303 229.012 143.721 251.415 141.35Z"/>
	<path fill="white" transform="scale(2 2)" d="M252.922 154.075C265.146 153.07 275.595 158.896 280.311 170.474C285.432 183.044 279.036 193.667 274.182 205.03L260.735 205.03L237.957 205.03C235.274 199.654 231.121 190.22 230.274 184.714C227.989 169.855 238.121 156.301 252.922 154.075Z"/>
	<path fill="white" transform="scale(2 2)" d="M220.927 217.486L290.723 217.486L290.744 242.359C290.75 250.831 292.227 258.298 286.442 265.188C282.89 268.582 279.541 269.664 274.649 269.725C266.314 269.83 238.289 270.928 231.129 269.325C219.044 266.62 220.901 253.356 220.906 244.08L220.927 217.486Z"/>
</svg>
